Newaita-dark/apps/22/sublime-merge.svg

<svg height="22" viewBox="0 0 22 22" width="22" xmlns="http://www.w3.org/2000/svg" xmlns:xlink="http://www.w3.org/1999/xlink"><linearGradient id="a" gradientUnits="userSpaceOnUse" x1="10.9151136" x2="10.9151136" y1="19.27333715" y2="20.18293042919"><stop offset="0" stop-opacity=".27451"/><stop offset="1" stop-opacity="0"/></linearGradient><linearGradient id="b"><stop offset="0" stop-opacity=".313726"/><stop offset=".222222" stop-opacity=".27451"/><stop offset="1" stop-opacity="0"/></linearGradient><radialGradient id="c" cx="450.908936" cy="189.579361" gradientTransform="matrix(.00000012 -.0537161 -.0966889 -.00000007 35.839821 43.721791)" gradientUnits="userSpaceOnUse" r="21.166656" xlink:href="#b"/><radialGradient id="d" cx="450.908936" cy="189.579361" gradientTransform="matrix(-.00000012 .0537161 .0966889 .00000007 -14.009609 -5.175142)" gradientUnits="userSpaceOnUse" r="21.166656" xlink:href="#b"/><radialGradient id="e" cx="450.908936" cy="189.579361" gradientTransform="matrix(-.00000012 -.0537161 .0966889 -.00000007 -14.009609 43.721791)" gradientUnits="userSpaceOnUse" r="21.166656" xlink:href="#b"/><radialGradient id="f" cx="450.908936" cy="189.579361" gradientTransform="matrix(.00000012 .0537161 -.0966889 .00000007 35.839819 -5.175142)" gradientUnits="userSpaceOnUse" r="21.166656" xlink:href="#b"/><linearGradient id="g" gradientUnits="userSpaceOnUse" x1="7.27674417081" x2="7.27674417081" y1="19.27333515" y2="1.99106765838"><stop offset="0" stop-color="#424242"/><stop offset="1" stop-color="#616161"/></linearGradient><linearGradient id="h" gradientUnits="userSpaceOnUse" x1="10.91511595541" x2="10.9151166" y1="19.27333515" y2="1.99106765838"><stop offset="0" stop-color="#26c6da"/><stop offset="1" stop-color="#4dd0e1"/></linearGradient><linearGradient id="i" gradientTransform="matrix(.0429729 0 0 -.0429729 0 12.025964)" gradientUnits="userSpaceOnUse" x1="253.999985" x2="254" y1="233.5" y2="-168.666656"><stop offset="0" stop-color="#b2ebf2"/><stop offset="1" stop-color="#80deea"/></linearGradient><path d="m4.09375 19.207031h13.644531v1.007813h-13.644531zm0 0" fill="url(#a)"/><path d="m17.738281 19.273438h1.816407v-.910157h-1.816407zm0 0" fill="url(#c)"/><path d="m4.09375 19.273438h-1.820312v.910156h1.820312zm0 0" fill="url(#d)"/><path d="m4.09375 19.273438h-1.820312v-.910157h1.820312zm0 0" fill="url(#e)"/><path d="m17.738281 19.273438h1.816407v.910156h-1.816407zm0 0" fill="url(#f)"/><path d="m3.183594 1.992188h15.464844c.5 0 .90625.40625.90625.910156v15.460937c0 .503907-.40625.910157-.90625.910157h-15.464844c-.503906 0-.910156-.40625-.910156-.910157v-15.460937c0-.503906.40625-.910156.910156-.910156zm0 0" fill="url(#g)"/><path d="m5.9375 8.5c-.0625.1875 0 .398438.167969.515625l2.71875 1.902344 1.832031-1.285157c.074219-.050781.164062-.082031.257812-.082031h.371094l-.402344-.28125c-.082031.003907-.160156.03125-.226562.082031l-1.832031 1.28125-2.71875-1.902343c-.082031-.058594-.140625-.140625-.167969-.230469zm0 0" fill-opacity=".235294"/><path d="m3.183594 1.992188c-.503906 0-.910156.40625-.910156.910156v.113281c0-.503906.40625-.910156.910156-.910156h15.464844c.503906 0 .90625.40625.90625.910156v-.113281c0-.503906-.402344-.910156-.90625-.910156zm0 0" fill="#e6e6e6" fill-opacity=".392157"/><path d="m3.183594 19.273438c-.503906 0-.910156-.40625-.910156-.910157v-.113281c0 .503906.40625.910156.910156.910156h15.464844c.503906 0 .90625-.40625.90625-.910156v.113281c0 .503907-.402344.910157-.90625.910157zm0 0" fill-opacity=".196078"/><path d="m74.083834-168.640791h359.874725c11.635253 0 21.088895 9.453643 21.088895 21.179796v359.783824c0 11.726153-9.453642 21.179796-21.088895 21.179796h-359.874725c-11.726152 0-21.179795-9.453643-21.179795-21.179796v-359.783824c0-11.726153 9.453643-21.179796 21.179795-21.179796zm0 0" fill="none" stroke="#212121" stroke-linecap="round" stroke-width="3" transform="matrix(.0429729 0 0 .0429729 0 9.239163)"/><path d="m10.914062 9.269531c-.09375 0-.183593.027344-.257812.082031l-4.550781 3.183594c-.199219.140625-.253907.417969-.117188.621094l.910157 1.367188c.140624.210937.429687.265624.640624.117187l3.746094-2.644531h3.269532c.121093 0 .234374-.046875.320312-.132813l.910156-.910156c.175782-.175781.175782-.464844 0-.640625l-.910156-.910156c-.085938-.085938-.199219-.132813-.320312-.132813zm0 0" fill="url(#h)"/><path d="m7.28125 6.539062c-.148438 0-.292969.070313-.382812.203126l-.910157 1.363281c-.136719.207031-.082031.484375.117188.625l2.71875 1.902343 1.832031-1.28125c.074219-.054687.164062-.082031.257812-.082031h.371094l-3.746094-2.644531c-.078124-.058594-.167968-.082031-.257812-.085938zm0 0" fill="url(#i)"/><path d="m10.914062 9.269531c-.09375 0-.183593.027344-.257812.082031l-4.550781 3.183594c-.15625.109375-.222657.304688-.179688.484375.027344-.101562.089844-.195312.179688-.257812l4.550781-3.183594c.074219-.054687.164062-.082031.257812-.082031h3.640626c.121093 0 .234374.046875.320312.132812l.910156.910156c.058594.058594.097656.128907.117188.207032.039062-.152344 0-.316406-.117188-.433594l-.910156-.910156c-.085938-.085938-.199219-.132813-.320312-.132813zm0 0" fill="#fff" fill-opacity=".392157"/><path d="m15.882812 10.804688c-.019531.054687-.054687.105468-.097656.148437l-.910156.910156c-.085938.085938-.199219.132813-.320312.132813h-3.269532l-3.746094 2.644531c-.210937.148437-.5.09375-.640624-.117187l-.910157-1.363282c-.015625-.027344-.03125-.054687-.042969-.082031-.054687.132813-.042968.292969.042969.421875l.910157 1.363281c.140624.214844.429687.265625.640624.121094l3.746094-2.648437h3.269532c.121093 0 .234374-.046876.320312-.132813l.910156-.90625c.132813-.132813.164063-.328125.097656-.492187zm0 0" fill-opacity=".235294"/><path d="m7.28125 6.539062c-.148438 0-.292969.070313-.382812.203126l-.910157 1.363281c-.074219.113281-.089843.246093-.0625.367187.015625-.050781.035157-.097656.0625-.140625l.910157-1.363281c.089843-.132812.234374-.203125.382812-.203125.089844 0 .179688.027344.257812.082031l3.425782 2.421875h.320312l-3.746094-2.644531c-.078124-.058594-.167968-.082031-.257812-.085938zm0 0" fill="#fff" fill-opacity=".392157"/><g fill="none" stroke="#212121" stroke-linecap="round" stroke-linejoin="round"><path d="m253.975747.706674c-2.18161 0-4.27232.636303-5.999428 1.908908l-105.898978 74.083835c-4.635921 3.272415-5.908526 9.726344-2.727012 14.453165l21.179796 31.815144c3.272414 4.908622 9.999045 6.181228 14.907667 2.727012l87.173494-61.539578h76.083643c2.817913 0 5.454025-1.090805 7.453834-3.090614l21.179795-21.179795c4.090519-4.090519 4.090519-10.817149 0-14.907668l-21.179795-21.179795c-1.999809-1.999809-4.635921-3.090614-7.453834-3.090614zm0 0" stroke-width="3" transform="matrix(.0429729 0 0 .0429729 0 9.239163)"/><path d="m640.397003 575.120485c-13.055303 0-25.767046 6.184091-33.668941 17.865152l-80.049625 119.902658c-12.024622 18.208713-7.214773 42.601517 10.306818 54.9697l239.118195 167.314024 161.129933-112.687885c6.527651-4.809849 14.429546-7.214773 22.675001-7.214773h32.638259l-329.474638-232.590542c-6.871213-5.15341-14.773107-7.214774-22.675002-7.558334zm0 0" stroke-width="11.338583" transform="scale(.0113699)"/></g></svg>

<?xml version="1.0" encoding="UTF-8"?>
<svg xmlns="http://www.w3.org/2000/svg" xmlns:xlink="http://www.w3.org/1999/xlink" width="22px" height="22px" viewBox="0 0 22 22" version="1.1">
<defs>
<linearGradient id="linear0" gradientUnits="userSpaceOnUse" x1="254" y1="233.5" x2="254" y2="254.666672" gradientTransform="matrix(0.0429729,0,0,0.0429729,-0.00000262285,9.239165)">
<stop offset="0" style="stop-color:rgb(0%,0%,0%);stop-opacity:0.27451;"/>
<stop offset="1" style="stop-color:rgb(0%,0%,0%);stop-opacity:0;"/>
</linearGradient>
<radialGradient id="radial0" gradientUnits="userSpaceOnUse" cx="450.908936" cy="189.579361" fx="450.908936" fy="189.579361" r="21.166656" gradientTransform="matrix(0.000000119742,-0.0537161,-0.0966889,-0.0000000698078,35.839821,43.721791)">
<stop offset="0" style="stop-color:rgb(0%,0%,0%);stop-opacity:0.313726;"/>
<stop offset="0.222222" style="stop-color:rgb(0%,0%,0%);stop-opacity:0.27451;"/>
<stop offset="1" style="stop-color:rgb(0%,0%,0%);stop-opacity:0;"/>
</radialGradient>
<radialGradient id="radial1" gradientUnits="userSpaceOnUse" cx="450.908936" cy="189.579361" fx="450.908936" fy="189.579361" r="21.166656" gradientTransform="matrix(-0.000000119742,0.0537161,0.0966889,0.0000000698078,-14.009609,-5.175142)">
<stop offset="0" style="stop-color:rgb(0%,0%,0%);stop-opacity:0.313726;"/>
<stop offset="0.222222" style="stop-color:rgb(0%,0%,0%);stop-opacity:0.27451;"/>
<stop offset="1" style="stop-color:rgb(0%,0%,0%);stop-opacity:0;"/>
</radialGradient>
<radialGradient id="radial2" gradientUnits="userSpaceOnUse" cx="450.908936" cy="189.579361" fx="450.908936" fy="189.579361" r="21.166656" gradientTransform="matrix(-0.000000119742,-0.0537161,0.0966889,-0.0000000698078,-14.009609,43.721791)">
<stop offset="0" style="stop-color:rgb(0%,0%,0%);stop-opacity:0.313726;"/>
<stop offset="0.222222" style="stop-color:rgb(0%,0%,0%);stop-opacity:0.27451;"/>
<stop offset="1" style="stop-color:rgb(0%,0%,0%);stop-opacity:0;"/>
</radialGradient>
<radialGradient id="radial3" gradientUnits="userSpaceOnUse" cx="450.908936" cy="189.579361" fx="450.908936" fy="189.579361" r="21.166656" gradientTransform="matrix(0.000000119742,0.0537161,-0.0966889,0.0000000698078,35.839819,-5.175142)">
<stop offset="0" style="stop-color:rgb(0%,0%,0%);stop-opacity:0.313726;"/>
<stop offset="0.222222" style="stop-color:rgb(0%,0%,0%);stop-opacity:0.27451;"/>
<stop offset="1" style="stop-color:rgb(0%,0%,0%);stop-opacity:0;"/>
</radialGradient>
<linearGradient id="linear1" gradientUnits="userSpaceOnUse" x1="169.333328" y1="233.5" x2="169.333328" y2="-168.666656" gradientTransform="matrix(0.0429729,0,0,0.0429729,0,9.239163)">
<stop offset="0" style="stop-color:rgb(25.882354%,25.882354%,25.882354%);stop-opacity:1;"/>
<stop offset="1" style="stop-color:rgb(38.039216%,38.039216%,38.039216%);stop-opacity:1;"/>
</linearGradient>
<linearGradient id="linear2" gradientUnits="userSpaceOnUse" x1="253.999985" y1="233.5" x2="254" y2="-168.666656" gradientTransform="matrix(0.0429729,0,0,0.0429729,0,9.239163)">
<stop offset="0" style="stop-color:rgb(14.901961%,77.64706%,85.490197%);stop-opacity:1;"/>
<stop offset="1" style="stop-color:rgb(30.19608%,81.568629%,88.235295%);stop-opacity:1;"/>
</linearGradient>
<linearGradient id="linear3" gradientUnits="userSpaceOnUse" x1="253.999985" y1="233.5" x2="254" y2="-168.666656" gradientTransform="matrix(0.0429729,0,0,-0.0429729,0,12.025964)">
<stop offset="0" style="stop-color:rgb(69.803923%,92.156863%,94.901961%);stop-opacity:1;"/>
<stop offset="1" style="stop-color:rgb(50.196081%,87.058824%,91.764706%);stop-opacity:1;"/>
</linearGradient>
</defs>
<g id="surface1">
<path style=" stroke:none;fill-rule:nonzero;fill:url(#linear0);" d="M 4.09375 19.207031 L 17.738281 19.207031 L 17.738281 20.214844 L 4.09375 20.214844 Z M 4.09375 19.207031 "/>
<path style=" stroke:none;fill-rule:nonzero;fill:url(#radial0);" d="M 17.738281 19.273438 L 19.554688 19.273438 L 19.554688 18.363281 L 17.738281 18.363281 Z M 17.738281 19.273438 "/>
<path style=" stroke:none;fill-rule:nonzero;fill:url(#radial1);" d="M 4.09375 19.273438 L 2.273438 19.273438 L 2.273438 20.183594 L 4.09375 20.183594 Z M 4.09375 19.273438 "/>
<path style=" stroke:none;fill-rule:nonzero;fill:url(#radial2);" d="M 4.09375 19.273438 L 2.273438 19.273438 L 2.273438 18.363281 L 4.09375 18.363281 Z M 4.09375 19.273438 "/>
<path style=" stroke:none;fill-rule:nonzero;fill:url(#radial3);" d="M 17.738281 19.273438 L 19.554688 19.273438 L 19.554688 20.183594 L 17.738281 20.183594 Z M 17.738281 19.273438 "/>
<path style=" stroke:none;fill-rule:nonzero;fill:url(#linear1);" d="M 3.183594 1.992188 L 18.648438 1.992188 C 19.148438 1.992188 19.554688 2.398438 19.554688 2.902344 L 19.554688 18.363281 C 19.554688 18.867188 19.148438 19.273438 18.648438 19.273438 L 3.183594 19.273438 C 2.679688 19.273438 2.273438 18.867188 2.273438 18.363281 L 2.273438 2.902344 C 2.273438 2.398438 2.679688 1.992188 3.183594 1.992188 Z M 3.183594 1.992188 "/>
<path style=" stroke:none;fill-rule:nonzero;fill:rgb(0%,0%,0%);fill-opacity:0.235294;" d="M 5.9375 8.5 C 5.875 8.6875 5.9375 8.898438 6.105469 9.015625 L 8.824219 10.917969 L 10.65625 9.632812 C 10.730469 9.582031 10.820312 9.550781 10.914062 9.550781 L 11.285156 9.550781 L 10.882812 9.269531 C 10.800781 9.273438 10.722656 9.300781 10.65625 9.351562 L 8.824219 10.632812 L 6.105469 8.730469 C 6.023438 8.671875 5.964844 8.589844 5.9375 8.5 Z M 5.9375 8.5 "/>
<path style=" stroke:none;fill-rule:nonzero;fill:rgb(90.196079%,90.196079%,90.196079%);fill-opacity:0.392157;" d="M 3.183594 1.992188 C 2.679688 1.992188 2.273438 2.398438 2.273438 2.902344 L 2.273438 3.015625 C 2.273438 2.511719 2.679688 2.105469 3.183594 2.105469 L 18.648438 2.105469 C 19.152344 2.105469 19.554688 2.511719 19.554688 3.015625 L 19.554688 2.902344 C 19.554688 2.398438 19.152344 1.992188 18.648438 1.992188 Z M 3.183594 1.992188 "/>
<path style=" stroke:none;fill-rule:nonzero;fill:rgb(0%,0%,0%);fill-opacity:0.196078;" d="M 3.183594 19.273438 C 2.679688 19.273438 2.273438 18.867188 2.273438 18.363281 L 2.273438 18.25 C 2.273438 18.753906 2.679688 19.160156 3.183594 19.160156 L 18.648438 19.160156 C 19.152344 19.160156 19.554688 18.753906 19.554688 18.25 L 19.554688 18.363281 C 19.554688 18.867188 19.152344 19.273438 18.648438 19.273438 Z M 3.183594 19.273438 "/>
<path style="fill:none;stroke-width:3;stroke-linecap:round;stroke-linejoin:miter;stroke:rgb(12.941177%,12.941177%,12.941177%);stroke-opacity:1;stroke-miterlimit:4;" d="M 74.083834 -168.640791 L 433.958559 -168.640791 C 445.593812 -168.640791 455.047454 -159.187148 455.047454 -147.460995 L 455.047454 212.322829 C 455.047454 224.048982 445.593812 233.502625 433.958559 233.502625 L 74.083834 233.502625 C 62.357682 233.502625 52.904039 224.048982 52.904039 212.322829 L 52.904039 -147.460995 C 52.904039 -159.187148 62.357682 -168.640791 74.083834 -168.640791 Z M 74.083834 -168.640791 " transform="matrix(0.0429729,0,0,0.0429729,0,9.239163)"/>
<path style=" stroke:none;fill-rule:nonzero;fill:url(#linear2);" d="M 10.914062 9.269531 C 10.820312 9.269531 10.730469 9.296875 10.65625 9.351562 L 6.105469 12.535156 C 5.90625 12.675781 5.851562 12.953125 5.988281 13.15625 L 6.898438 14.523438 C 7.039062 14.734375 7.328125 14.789062 7.539062 14.640625 L 11.285156 11.996094 L 14.554688 11.996094 C 14.675781 11.996094 14.789062 11.949219 14.875 11.863281 L 15.785156 10.953125 C 15.960938 10.777344 15.960938 10.488281 15.785156 10.3125 L 14.875 9.402344 C 14.789062 9.316406 14.675781 9.269531 14.554688 9.269531 Z M 10.914062 9.269531 "/>
<path style=" stroke:none;fill-rule:nonzero;fill:url(#linear3);" d="M 7.28125 6.539062 C 7.132812 6.539062 6.988281 6.609375 6.898438 6.742188 L 5.988281 8.105469 C 5.851562 8.3125 5.90625 8.589844 6.105469 8.730469 L 8.824219 10.632812 L 10.65625 9.351562 C 10.730469 9.296875 10.820312 9.269531 10.914062 9.269531 L 11.285156 9.269531 L 7.539062 6.625 C 7.460938 6.566406 7.371094 6.542969 7.28125 6.539062 Z M 7.28125 6.539062 "/>
<path style=" stroke:none;fill-rule:nonzero;fill:rgb(100%,100%,100%);fill-opacity:0.392157;" d="M 10.914062 9.269531 C 10.820312 9.269531 10.730469 9.296875 10.65625 9.351562 L 6.105469 12.535156 C 5.949219 12.644531 5.882812 12.839844 5.925781 13.019531 C 5.953125 12.917969 6.015625 12.824219 6.105469 12.761719 L 10.65625 9.578125 C 10.730469 9.523438 10.820312 9.496094 10.914062 9.496094 L 14.554688 9.496094 C 14.675781 9.496094 14.789062 9.542969 14.875 9.628906 L 15.785156 10.539062 C 15.84375 10.597656 15.882812 10.667969 15.902344 10.746094 C 15.941406 10.59375 15.902344 10.429688 15.785156 10.3125 L 14.875 9.402344 C 14.789062 9.316406 14.675781 9.269531 14.554688 9.269531 Z M 10.914062 9.269531 "/>
<path style=" stroke:none;fill-rule:nonzero;fill:rgb(0%,0%,0%);fill-opacity:0.235294;" d="M 15.882812 10.804688 C 15.863281 10.859375 15.828125 10.910156 15.785156 10.953125 L 14.875 11.863281 C 14.789062 11.949219 14.675781 11.996094 14.554688 11.996094 L 11.285156 11.996094 L 7.539062 14.640625 C 7.328125 14.789062 7.039062 14.734375 6.898438 14.523438 L 5.988281 13.160156 C 5.972656 13.132812 5.957031 13.105469 5.945312 13.078125 C 5.890625 13.210938 5.902344 13.371094 5.988281 13.5 L 6.898438 14.863281 C 7.039062 15.078125 7.328125 15.128906 7.539062 14.984375 L 11.285156 12.335938 L 14.554688 12.335938 C 14.675781 12.335938 14.789062 12.289062 14.875 12.203125 L 15.785156 11.296875 C 15.917969 11.164062 15.949219 10.96875 15.882812 10.804688 Z M 15.882812 10.804688 "/>
<path style=" stroke:none;fill-rule:nonzero;fill:rgb(100%,100%,100%);fill-opacity:0.392157;" d="M 7.28125 6.539062 C 7.132812 6.539062 6.988281 6.609375 6.898438 6.742188 L 5.988281 8.105469 C 5.914062 8.21875 5.898438 8.351562 5.925781 8.472656 C 5.941406 8.421875 5.960938 8.375 5.988281 8.332031 L 6.898438 6.96875 C 6.988281 6.835938 7.132812 6.765625 7.28125 6.765625 C 7.371094 6.765625 7.460938 6.792969 7.539062 6.847656 L 10.964844 9.269531 L 11.285156 9.269531 L 7.539062 6.625 C 7.460938 6.566406 7.371094 6.542969 7.28125 6.539062 Z M 7.28125 6.539062 "/>
<path style="fill:none;stroke-width:3;stroke-linecap:round;stroke-linejoin:round;stroke:rgb(12.941177%,12.941177%,12.941177%);stroke-opacity:1;stroke-miterlimit:4;" d="M 253.975747 0.706674 C 251.794137 0.706674 249.703427 1.342977 247.976319 2.615582 L 142.077341 76.699417 C 137.44142 79.971832 136.168815 86.425761 139.350329 91.152582 L 160.530125 122.967726 C 163.802539 127.876348 170.52917 129.148954 175.437792 125.694738 L 262.611286 64.15516 L 338.694929 64.15516 C 341.512842 64.15516 344.148954 63.064355 346.148763 61.064546 L 367.328558 39.884751 C 371.419077 35.794232 371.419077 29.067602 367.328558 24.977083 L 346.148763 3.797288 C 344.148954 1.797479 341.512842 0.706674 338.694929 0.706674 Z M 253.975747 0.706674 " transform="matrix(0.0429729,0,0,0.0429729,0,9.239163)"/>
<path style="fill:none;stroke-width:11.338583;stroke-linecap:round;stroke-linejoin:round;stroke:rgb(12.941177%,12.941177%,12.941177%);stroke-opacity:1;stroke-miterlimit:4;" d="M 640.397003 575.120485 C 627.3417 575.120485 614.629957 581.304576 606.728062 592.985637 L 526.678437 712.888295 C 514.653815 731.097008 519.463664 755.489812 536.985255 767.857995 L 776.10345 935.172019 L 937.233383 822.484134 C 943.761034 817.674285 951.662929 815.269361 959.908384 815.269361 L 992.546643 815.269361 L 663.072005 582.678819 C 656.200792 577.525409 648.298898 575.464045 640.397003 575.120485 Z M 640.397003 575.120485 " transform="matrix(0.0113699,0,0,0.0113699,0,0)"/>
</g>
</svg>
